X: 3019
Q:"Strathspey."
M: C
L: 1/16
K: D
uA2 |\
vFuD3 vD3uD A,D3 D3D | FD3 D3G FGAF DF3 |\
dD3 D3D A,D3 D3D |
g2 |\
f3da3d b3da3g | fd3 d3g fgaf df3 |
g3eb3e ge3 e3f | g3eb3e gabg eg3 |\
f3da3d b3da3g | fd3 d3g fgaf df3 |\
gb3 eg3 fa3 df3 | cdec A3c dD3-D2 |]


